public/assets/3red.svg

<svg width="163" height="167" viewBox="0 0 163 167" fill="none" xmlns="http://www.w3.org/2000/svg">
<g filter="url(#filter0_d)">
<path d="M29.0424 126.459L42.043 27.4585L128.685 19.37L128.685 137.459L29.0424 126.459Z" fill="#FFF1F0"/>
<path d="M86.7867 52.5586C79.9867 52.5586 72.5867 54.5586 66.3867 58.0586L69.1867 71.5586H71.1867C75.3867 69.6586 78.8867 68.3586 82.1867 68.3586C85.3867 68.3586 86.7867 69.3586 86.7867 71.6586C86.7867 74.8586 83.6867 76.5586 79.6867 76.7586L75.1867 76.9586L74.6867 90.3586L75.4867 91.5586H83.8867C87.0867 91.5586 88.4867 92.6586 88.4867 94.8586C88.4867 98.0586 85.7867 99.5586 79.9867 99.5586C76.1867 99.5586 72.3867 98.8586 67.8867 97.5586L66.5867 98.7586L67.5867 113.159C71.1867 113.859 75.5867 114.259 79.3867 114.259C96.0867 114.259 107.287 106.759 107.287 95.5586C107.287 88.6586 104.287 84.3586 97.8867 82.0586V81.4586C104.987 77.3586 106.787 71.6586 106.787 67.4586C106.787 58.5586 98.7867 52.5586 86.7867 52.5586Z" fill="#EB6D73"/>
</g>
<defs>
<filter id="filter0_d" x="0" y="0" width="162.031" height="166.71" filterUnits="userSpaceOnUse" color-interpolation-filters="sRGB">
<feFlood flood-opacity="0" result="BackgroundImageFix"/>
<feColorMatrix in="SourceAlpha" type="matrix" values="0 0 0 0 0 0 0 0 0 0 0 0 0 0 0 0 0 0 127 0"/>
<feOffset/>
<feGaussianBlur stdDeviation="5"/>
<feColorMatrix type="matrix" values="0 0 0 0 0 0 0 0 0 0 0 0 0 0 0 0 0 0 0.25 0"/>
<feBlend mode="normal" in2="BackgroundImageFix" result="effect1_dropShadow"/>
<feBlend mode="normal" in="SourceGraphic" in2="effect1_dropShadow" result="shape"/>
</filter>
</defs>
</svg>

<svg width="163" height="167" fill="none" xmlns="http://www.w3.org/2000/svg"><g filter="url(#filter0_d)"><path d="M29.042 126.459l13.001-99 86.642-8.089v118.089l-99.643-11z" fill="#FFF1F0"/><path d="M86.787 52.559c-6.8 0-14.2 2-20.4 5.5l2.8 13.5h2c4.2-1.9 7.7-3.2 11-3.2 3.2 0 4.6 1 4.6 3.3 0 3.2-3.1 4.9-7.1 5.1l-4.5.2-.5 13.4.8 1.2h8.4c3.2 0 4.6 1.1 4.6 3.3 0 3.2-2.7 4.7-8.5 4.7-3.8 0-7.6-.7-12.1-2l-1.3 1.2 1 14.4c3.6.7 8 1.1 11.8 1.1 16.7 0 27.9-7.5 27.9-18.7 0-6.9-3-11.2-9.4-13.5v-.6c7.1-4.1 8.9-9.8 8.9-14 0-8.9-8-14.9-20-14.9z" fill="#EB6D73"/></g><defs><filter id="filter0_d" x="0" y="0" width="162.031" height="166.71" filterUnits="userSpaceOnUse" color-interpolation-filters="sRGB"><feFlood flood-opacity="0" result="BackgroundImageFix"/><feColorMatrix in="SourceAlpha" values="0 0 0 0 0 0 0 0 0 0 0 0 0 0 0 0 0 0 127 0"/><feOffset/><feGaussianBlur stdDeviation="5"/><feColorMatrix values="0 0 0 0 0 0 0 0 0 0 0 0 0 0 0 0 0 0 0.25 0"/><feBlend in2="BackgroundImageFix" result="effect1_dropShadow"/><feBlend in="SourceGraphic" in2="effect1_dropShadow" result="shape"/></filter></defs></svg>
